sd = sample_duration :loop_amen
in_thread do
  loop do
    play 80
    sleep sd/2
  end
end


with_fx :compressor, pre_amp: 50000, amp: 0.24 do
  with_fx :reverb, mix: 0.3  do
    loop do
      sample :loop_amen, rate: [1, 0.5, 0.25].choose
      sleep sample_duration(:loop_amen) / [1, 2, 4, 0.5].choose


    end
  end
end