in_thread(name: :foo) do
  with_fx :echo, phase: 0.4 do |e|
    define :ee do
      e
    end
    loop do

      sample :drum_heavy_kick, amp: 5
      sleep 0.5
    end
  end
end

control ee, phase: 0.3333, mix: 0.1