# Welcome to Sonic Pi v2.0
with_fx :distortion do
  with_fx :reverb do
    loop do
      with_fx :slicer, rate: 8 do
        sample :bass_dnb_f
      end
      sample :loop_amen, rate: [0.5, 1, 1, -1].choose
      sleep sample_duration :loop_amen

    end
  end
end