# Welcome to Sonic Pi v2.0

#play [50, 57, 62].choose




define :my_music do

    use_synth :fm
    play [30, 37, 42], attack: 0.1, sustain: 0, release: 0.1
    sleep 0.25

end


#loop do
#  my_music
#end