load_samples(sample_names :drum)
sd = sample_duration :loop_industrial
define :drums do
  sync :tick
  sample :loop_industrial
  with_fx :reverb, room: 0.9 do
    sample sample_names(:drum).choose, start: 0, finish: 0.1, rate: 1
  end
  sleep sd
end

define :synths do
 wait :tick
 
 play_pattern_timed [50, 48, 52], [sd/4]
end

in_thread(name: :drums){loop{drums}}
in_thread(name: :synths){loop{synths}}
 