use_synth :dsaw
use_bpm 120
with_fx :bitcrusher, bits: 16, sample_rate: 10000 do
  with_fx :wobble, phase: 2, wave: 0, invert_wave: 0  do
    play 40, sustain: 1
    sleep 1
    play 45, sustain: 1
  end
end