
load_sample :drum_heavy_kick

define :drums do
  sample :drum_heavy_kick, rate: 0.75
  sleep 0.5
  sample :drum_heavy_kick
  sleep 0.25
end

define :synths do
  use_synth :fm

  sample :ambi_choir, rate: 0.4 

  sleep 0.5

end

in_thread(name: :drums){loop{drums}}
in_thread(name: :synths){loop{synths}}
 