# Welcome to Sonic Pi v2.0

in_thread do
  loop do
    use_synth :fm
    play :a3, release: 0.5
    sleep 1
  end
end

loop do
  use_synth :prophet
  play chord(:a3, :minor).choose, amp: 1, cutoff: rrand(50, 120), release: 0.2
  sleep 0.125
end