#use_synth :sound_in

#with_fx :echo do |e|
# define :my_e do
e
#  end
#  with_fx :reverb do
#    play sustain: 100000
#  end
#end


r  =[0.25, 0.5, 0.125].choose
puts r
my_e.control delay:  r, decay: 20