with_fx :rlpf, cutoff: 20, cutoff_slide: 10 do |r|
  loop do
    sample :bass_dnb_f
    sample :loop_amen, rate: [0.5, 1, -1].choose
    sleep sample_duration :loop_amen
    control r, cutoff: rrand(20, 120), cutoff_slide: rrand(0.5, 5)
  end
end