load_samples(sample_names :drum)

define :drums do
  sync :tick
  sample :loop_industrial
  sample sample_names(:drum).choose, start: 0, finish: 0.1, rate: 1
  sleep sample_duration :loop_industrial

  
end

define :synths do
  wait :tick





end

in_thread(name: :drums){loop{drums}}
in_thread(name: :synths){loop{synths}}
 