define :foo do
  use_synth :tb303
  sample :drum_heavy_kick
  play chord(:e2, :m9).choose, attack: 0, release: 0.2, cutoff: rrand(30, 100)
  sleep 0.125
end

in_thread(name: :sam) do
  loop do
    foo
  end
end