
load_sample :drum_heavy_kick

define :drums do
  with_fx :slicer, phase: 0.125 / 2 do
#    sample :bass_hard_c, rate: 1
  end
  with_fx :echo, phase: 0.125/ 2, amp: 0.5, mix: 0.125 do

   # sample :drum_heavy_kick, rate: 0.75, amp: 5
    sleep 0.25
    #sample :drum_heavy_kick
    sample :elec_plip, rate: [0.5, 2, 1].choose * 1, amp: 0.5
    sleep 0.25
  end
end

define :synths do
  sleep 1
end

in_thread(name: :drums){loop{drums}}
in_thread(name: :synths){loop{synths}}