use_synth :prophet
use_bpm 245
with_fx :none do
  with_fx(:echo, phase: 0.5, decay: 10) do
    loop do
      play chord([:b1, :b2, :e1, :e2, :b3, :e3].choose, :minor).choose, cutoff: rrand(40, 100), amp: 0.5, attack: 0, release: 2
      sleep 1#[0.25, 0.5, 0.5, 0.5, 1, 1].choose
    end
  end
end