# Welcome to Sonic Pi v2.0

#play [50, 57, 62].choose




define :my_music do

    use_synth :dsaw
    play chord(:e3, :minor).choose, attack: 0.1, sustain: 0, release: 0.1, cutoff: rrand(60, 120)    
    sleep 0.25

end


#loop do
#  my_music
#end