use_bpm 100
in_thread do
  with_fx :echo do
    play 50
    sleep 1
    play 62
    sleep 2
    play 70
  end
end
sleep 0.25
in_thread do
  use_transpose 12
  with_fx :echo do
    play 50
    sleep 1
    play 62
    sleep 2
    play 70
  end
end