# Welcome to Sonic Pi v2.0

in_thread do
  loop do
    use_synth :fm
    play :e3, release: 0.5
    sleep 1
  end
end

loop do
use_synth :prophet
 play chord(:e3, :minor).choose, amp: 0.2
 sleep 0.25
 end