#use_synth :sound_in

#with_fx :echo do |e|
# define :my_e do
e
#  end
#  with_fx :reverb do
#    play sustain: 100000
#  end
#end


r  =[0.25, 0.5, 0.125].choose
puts r
my_e.control delay:  r, decay: 2

#with_fx :reverb, room: 0.9 do
#  with_fx :echo, delay: 0.25 do
# sample :drum_cymbal_hard, amp: 0.2, attack: 0, sustain: 0.1, release: 0.01
#  end
#end



200.times do
  use_synth :prophet
  play 43 + 7 - 12 , amp: 0.3, attack: 0, release: 0.051, cutoff: rrand(60, 120)
  sleep 1
end