define :drums do
  sync :tick
  with_fx :echo
  sample :drum_heavy_kick, rate: 1
  sleep 1
  end
  
end

define :synths do
  use_transpose 0
  sample :ambi_dark_woosh if rand < 0.1  
  sample :ambi_lunar_land if rand < 0.1
  sample :ambi_glass_hum, rate: 0.3, start: 0.5, finish: 0
  sleep 1
end

in_thread(name: :drums){loop{drums}}
in_thread(name: :synths){loop{synths}}
 