use_synth :dsaw
use_synth_defaults detune: 24.1 + 7

with_fx :reverb do
  loop do
    sync :foo
    play chord([[:e3, :minor], [:a3, :minor]].choose).choose, attack: 0, release: 0.1
    sleep 0.25
  end
end