use_synth :dsaw

define :rhythm do
  use_synth_defaults attack: 0, release: 0.2
  play_pattern_timed [50, 50, 50], [0.25, 0.125, 0.25]
end

in_thread do
  loop do
    rhythm
  end
end

loop do
  sample :drum_heavy_kick
  sleep 0.5
end