in_thread do
  loop do
    r = [0.5, 0.33333, 0.666666].choose
#    r = 0.66666
    8.times do
      sample :ambi_choir, rate: r
      sleep 0.5
    end
  end
end


with_fx :wobble, phase: 2 do
  with_fx :echo, mix: 0.6 do
    loop do
      sample :drum_heavy_kick
      sample :bass_hit_c, rate: 0.8, amp: 0.4
      sleep 1
    end
  end
end