#use_synth :sound_in

#with_fx :echo do |e|
# define :my_e do
e
#  end
#  with_fx :reverb do
#    play sustain: 100000
#  end
#end

r = rand
puts r

10.times do
  my_e.control delay: [0.25, 0.5, 0.125, 1].choose
  sleep 4
end