#use_synth :sound_in

#with_fx :echo do |e|
# define :my_e do
e
#  end
#  with_fx :reverb do
#    play sustain: 100000
#  end
#end

r = rand
puts r
n = 0
10.times do
n = n+1
  my_e.control delay: [0.25, 0.5, 0.125, 0.125 / 2].choose
  sleep 0.25
  puts "hi:#{n}"
end