

define :freddy do
  use_synth :tb303
  with_fx :reverb do
    play chord(:e3, :minor).choose, attack: 0, release: 0.2, cutoff: rrand(40, 120)
  end
  sleep 0.125
end


in_thread(name: :johnny) do
  loop  do
    freddy
  end
end