#use_synth :sound_in

#with_fx :echo do |e|
# define :my_e do
e
#  end
#  with_fx :reverb do
#    play sustain: 100000
#  end
#end


r  =[0.25, 0.5, 0.125].choose
puts r
my_e.control delay:  r, decay: 2

with_fx :reverb, room: 0.9 do
with_fx :echo, delay: 0.5 do
sample :drum_cymbal_hard, amp: 0.3
end
end