# Welcome to Sonic Pi v2.0

#play [50, 57, 62].choose




define :my_music do

    use_synth :dsaw
    play [30, 37, 42].choose, attack: 0.1, sustain: 0, release: 0.1
    sleep 0.25

end


#loop do
#  my_music
#end