in_thread(name: :drums) do
  with_fx :reverb do
    loop do
      sample :drum_heavy_kick
      sleep 0.5
      sample :drum_cymbal_closed
      sleep 0.5
    end
  end
end
if false
with_fx :ixi_techno, rate_slide: 1 do |r|

  define :rrr3 do
    r
  end
  use_synth :sound_in
  play sustain: 100, amp: 0.3
end
end