lp = :loop_industrial
sd = sample_duration lp
load_sample :drum_heavy_kick

define :drums do
#  sample :drum_heavy_kick, rate: 0.75
  sleep 2


end

define :synths do
  use_synth :fm
  with_fx :echo do 
  sample :ambi_choir, rate: 0.34, start: 0, finish: 0.1
  end
  sleep 1

end

in_thread(name: :drums){loop{drums}}
in_thread(name: :synths){loop{synths}}
 