
defonce :val do
  OSCVal.new(8112)
end

defonce :out do
  OSC::Client.new("192.168.15.14", 8112)
end

defonce :out3 do
  OSC::Client.new("localhost", 8119)
end



loop do
  a = rand
  out.send(OSC::Message.new("/beat", a))
  puts "sent: #{a}"
  sleep 0.3
  sample :elec_blip2
end


comment do
  loop do
    v = val.read("/palimpsest/left")
    puts v
    sleep 0.125

  end
end