
use_synth :prophet
use_transpose 5
use_synth_defaults release: 0.2, cutoff: lambda{rrand(60, 120)}, amp: 0.3
use_bpm 60


with_fx :echo, delay: 0.25 do
  with_fx :reverb do

      chord(:e3, :major)

  end
end