use_synth_defaults amp: 0.3, attack: 0.2, sustain: 0, release: 0.12
use_transpose -5
use_synth :tb303
bpm = 80
with_fx :reverb, room: 0.4 do
with_synth :zawa do
  play 30 + 24, release: 10, amp: 0.1
end
  loop do
    use_bpm bpm += 10
    play_pattern_timed [30, 45, 78, 90], [0.25, 0.5]
  end
end