with_fx :reverb, room: 0, damp: 0.9 do
  loop do
  use_synth_defaults attack: 0, sustain: 0, release: 0.2
    sample :elec_tick, rate: 1.5
    sleep 0.25
    sample :elec_tick, rate: 1.1
    sleep 0.25
  end
end