with_fx :reverb, room: 0, damp: 0.9 do
  loop do

    sample :elec_tick, rate: 1.5, attack: 0, sustain: 0, release: 0.051
    sleep 0.25
    sample :elec_tick, rate: 1.1, attack: 0, sustain: 0, release: 0.051
    sleep 0.25
  end
end