with_fx :wobble, phase: 2 do
  in_thread do
    loop do
      sample :drum_heavy_kick
      sleep 0.25
    end
  end
end

loop do
  use_synth :fm
  play :e2, attack: 0, release: 1, amp: 1
  sleep 0.5
end