comment do
  in_thread(name: :foo) do
    with_fx :reverb do |r|
      define :rev do
        r
      end



      with_fx :echo do |e|
        define :ech do
          e
        end
        synth :sound_in
      end
    end
  end
end
define :foo do
play 30, attack: 0, release: 0.2
sleep 1
end

comment do
loop do
foo
end
end

control rev, mix: 0.5
control ech, phase: 0.5