in_thread do
  loop do
    sample :ambi_choir, rate: [0.5, 1].choose
    sleep 1
  end
end


with_fx :wobble, phase: 2 do
  with_fx :echo, mix: 0.6 do
    loop do
      sample :drum_heavy_kick
      sample :bass_hit_c, rate: 0.8, amp: 0.4
      sleep 1
    end
  end
end