define :drums do
  sync :tick
  with_fx :echo do
  sample :drum_heavy_kick, rate: 1
  sleep 1
  end
  
end

define :synths do
  wait :tick
  use_transpose 0
  sample :bass_thick_c, start: 0, finish: 0.3
  sleep 0.25
end

in_thread(name: :drums){loop{drums}}
in_thread(name: :synths){loop{synths}}
 