use_synth :dsaw
use_synth_defaults detune: -12

with_fx :reverb do
  loop do
    sync :foo
    play chord([[:e3, :minor], [:e2, :minor]].choose).choose, attack: 0, release: 0.2
    sleep 0.25
  end
end