use_synth :prophet

in_thread do

  loop do
    sample :elec_blip2, rate: 1
    sleep 0.25
  end

end


with_fx :slicer, wave: 1, phase: 0.125 do
  loop do
    with_synth :beep do
      play [30, 35].choose, release: 2
    end
    play 42, res: 0.3
    sleep 2
  end
end