
load_sample :drum_heavy_kick

define :drums do
  with_fx :echo, phase: 0.333333333, amp: 0.5, mix: 0.7225 do
    sample :drum_heavy_kick, rate: 0.75, amp: 5
    sleep 0.5
    sample :drum_heavy_kick
    sample :elec_chime, rate: [0.5, 2, 1].choose * 1, amp: 0.5
    sleep 0.5
  end
end

define :synths do
  sleep 1
end

in_thread(name: :drums){loop{drums}}
in_thread(name: :synths){loop{synths}}